X:1
T:Title
%%score 1 { ( 2 4 ) | ( 3 5 6 ) }
L:1/8
M:4/4
K:Eb
V:1 treble nm="Akkordion"
V:2 treble nm="Grand Piano"
V:4 treble 
V:3 bass 
V:5 bass 
V:6 bass 
V:1
 z8[Q:1/4=100] | z8 | z8 | z8 |[M:3/4] z6 |[M:1/4] B,2 |[M:4/4] G2 B2 G3 D | F2 E4 F2 | %8
 G2 E2 D3 E | C6 C2 | A2 c2 G2 B2 | A2 C2 D2 E2 | G2 F2 C2 G2 | F6 B,2 | G2 B2 G2 D2 | F2 E4 E2 | %16
 E2 E2 F2 _G2 | G6 G2 | G2 B2 A2 G2 |[M:3/4] F2 A2 G2 |[M:1/4] F2 |[M:4/4] E2 D2 C2 D2 | %22
[M:3/4] E6 |[M:1/4] B2 |[M:4/4] B2 A2 F2 D2 | B,2 B4 B,2 | E2 G2 d3 c | B6 B2 | e2 G2 d2 c2 | %29
[M:9/8] B2 G- G E2- E F2 |[M:4/4] G B3 F B3 |[M:3/4] E6 |] %32
V:2
 z4 z2 B,2 | z4 =A4 | G2 B2 E2 [=A,EF]2 | E- [EB]3 [A,D]4 |[M:3/4] [G,B,E]6 |[M:1/4] B,2 | %6
[M:4/4] G2 B2 G3 D | F2 E4 [A,B,F]2 | z4[K:bass] D4 | C6[K:treble] z2 | A2 c2 G2 B2 | z2 A6 | %12
 [EG]2 z2 z4 | [A,B,DF]6 B2 | G2 B2 G3 D | F2 E4[K:bass] [G,B,E]2 | %16
 [A,CE]2 [A,CE]2 [F,CE]2 [_G,CE]2 | [G,=B,D]6 z2 | [B,G]2 B2 A2 G2 |[M:3/4] F2 A2 [B,=EG]2 | %20
[M:1/4] [A,CF]2 |[M:4/4] [G,E]2 z2 A4 |[M:3/4] E6 |[M:1/4] B2 |[M:4/4] B2 A2 F2 D2 | B,2 B4 B,2 | %26
 z2 G2 [_Gd]4 | [B,GB]6 [B,DAB]2 | [Ge]2 [EG]2 d2 c2 |[M:9/8] B2 G- G [CE]2- [CE] [EF]2 | %30
[M:4/4] E- [EB]3 F B3 |[M:3/4] E6 |] %32
V:3
 z8 | B,2 z2 D2 z2 | B,2 G,4 z2 | z G,3 z[K:treble] B3 |[M:3/4][K:bass] E,6 |[M:1/4] B,,2 | %6
[M:4/4] [E,B,]2 [G,E]2 [B,D]3 [B,,A,B,] | A,2 z2 z4 | E,4 z4 | [A,,E,A,]2 [G,,=E,]2 [F,,F,]2 z2 | %10
 [F,C]2[K:treble] [A,F]2 [B,=E]2 [G,CE]2 | [CF]2 C2 z2[K:bass] F,,2 | F,,6- [F,,E]2 | %13
 B,,6 [B,,B,]2 | [E,B,]2 [G,E]2 [B,D]3 A,- | A,2 G,4 E,2 | A,,2 A,,2 A,,2 A,,2 | G,,6 G2 | %18
 z2 G,2 C2 B,2 |[M:3/4] [F,A,]2 z2 z2 |[M:1/4] A,,2 |[M:4/4] z4 C2 B,2 |[M:3/4] [E,G,B,]6 | %23
[M:1/4] B,2 |[M:4/4] B,2 A,2 F,2 D,2 | z2 [F,B,D]4 [B,,A,]2 | G,2 B,2 z2 z[K:treble] c | E,6 F,2 | %28
 [E,B,]4 [E,=A,E]4 |[M:9/8] .[E,E]2- .[E,B,E]- [E,-B,E-] [E,E]2 z =A,2 |[M:4/4] z G,3 D [B,D]3 | %31
[M:3/4] [E,G,B,]6 |] %32
V:4
 x8 | G2 B2 z2 C2 | x8 | .[B,G]2 z2 .F2 z2 |[M:3/4] x6 |[M:1/4] x2 |[M:4/4] x8 | x8 | %8
 [B,EG]2 E2[K:bass] [F,=B,]3- [F,B,E] | z2 B,2 A,2[K:treble] C2 | x8 | A2 z2 D2 E2 | %12
 =A,2- [A,-F]2 [A,-C]2 [A,G]2 | x8 | x8 | x6[K:bass] x2 | x8 | x8 | =E8 |[M:3/4] x6 |[M:1/4] x2 | %21
[M:4/4] B,2- [B,D]2 z2 D2 |[M:3/4] x6 |[M:1/4] x2 |[M:4/4] x8 | x8 | E4 z4 | x8 | z4 _G4 | %29
[M:9/8] x9 |[M:4/4] .[B,G]2 z2 z4 |[M:3/4] x6 |] %32
V:5
 x8 | [E,E]2- [E,-G,E-]2 [E,E_G]4 | [E,E]4 C,2 =B,,2 | B,,4 B,,4[K:treble] |[M:3/4][K:bass] x6 | %5
[M:1/4] x2 |[M:4/4] x8 | [E,B,]2- [E,G,B,]4 E,2 | z2 G,2 G,,4 | x8 | x2[K:treble] x6 | %11
 F,6[K:bass] z2 | C,4 F,4 | x8 | z4 z2 z [B,,B,] | [E,B,]6 z2 | x8 | x8 | C,8 | %19
[M:3/4] C2- [F,,C]2 G,,2 |[M:1/4] x2 |[M:4/4] z2 F,4 z2 |[M:3/4] x6 |[M:1/4] x2 |[M:4/4] x8 | %25
 B,,6 z2 | E,4 [E,=A,]4[K:treble] | x8 | x8 |[M:9/8] .G,3 z C,2- C,2 z |[M:4/4] z4 A,4 | %31
[M:3/4] x6 |] %32
V:6
 x8 | x8 | x8 | x5[K:treble] x3 |[M:3/4][K:bass] x6 |[M:1/4] x2 |[M:4/4] x8 | x8 | x8 | x8 | %10
 x2[K:treble] x6 | x6[K:bass] x2 | x8 | x8 | x8 | x8 | x8 | x8 | x8 |[M:3/4] x6 |[M:1/4] x2 | %21
[M:4/4] B,,8 |[M:3/4] x6 |[M:1/4] x2 |[M:4/4] x8 | x8 | x7[K:treble] x | x8 | x8 |[M:9/8] x9 | %30
[M:4/4] C,8 |[M:3/4] x6 |] %32

